actions/symbolic/edit-redo-symbolic.svg

<?xml version="1.0" encoding="UTF-8" standalone="no"?>
<svg
   xmlns:dc="http://purl.org/dc/elements/1.1/"
   xmlns:cc="http://creativecommons.org/ns#"
   xmlns:rdf="http://www.w3.org/1999/02/22-rdf-syntax-ns#"
   xmlns:svg="http://www.w3.org/2000/svg"
   xmlns="http://www.w3.org/2000/svg"
   id="svg6"
   version="1.1"
   width="16"
   height="16">
  <metadata
     id="metadata12">
    <rdf:RDF>
      <cc:Work
         rdf:about="">
        <dc:format>image/svg+xml</dc:format>
        <dc:type
           rdf:resource="http://purl.org/dc/dcmitype/StillImage" />
        <dc:title></dc:title>
      </cc:Work>
    </rdf:RDF>
  </metadata>
  <defs
     id="defs10" />
  <path
     id="path873-5"
     style="opacity:1;fill:#555761;stroke:none;stroke-width:4;stroke-linecap:round;stroke-linejoin:round;stop-color:#000000"
     d="M 8.7734375,2.5 C 8.3422191,2.5 7.9960938,2.8343185 7.9960938,3.25 v 2.7460938 h -0.953125 c -3.360629,0 -5.0974158,2.1697257 -5.0410157,4.8398442 v 1.667968 c 0,0.323676 0.1762426,0.501953 0.5097657,0.501953 C 2.7909871,13.005859 3,12.781264 3,12.503906 3.0370584,10.668199 4.733623,9 6.75,9 h 1.2460938 v 2.75 c 0,0.41568 0.3461253,0.75 0.7773437,0.75 0.2324095,0 0.4396467,-0.09725 0.5820313,-0.251953 L 13.787109,8.0234375 C 13.918719,7.8890578 14,7.7091578 14,7.5097656 14,7.3103732 13.918721,7.1304738 13.787109,6.9960938 L 9.3554688,2.7519531 C 9.2130842,2.5972426 9.005847,2.5 8.7734375,2.5 Z" />
</svg>

<svg
        xmlns='http://www.w3.org/2000/svg'
        xmlns:svg='http://www.w3.org/2000/svg'
        id='svg6'
        width='16'
        height='16'>
  <path
          id='path873-5'
          opacity='1'
          fill='url(#gpa:foreground) #555761'
          fill-opacity='1'
          fill-rule='nonzero'
          stroke='none'
          stroke-width='4'
          stroke-linecap='round'
          stroke-linejoin='round'
          d='M 8.77344 2.5 C 8.34222 2.5, 7.99609 2.83432, 7.99609 3.25 L 7.99609 5.99609 L 7.04297 5.99609 C 3.68234 5.99609, 1.94555 8.16582, 2.00195 10.8359 L 2.00195 12.5039 C 2.00195 12.8276, 2.1782 13.0059, 2.51172 13.0059 C 2.79099 13.0059, 3 12.7813, 3 12.5039 C 3.03706 10.6682, 4.73362 9, 6.75 9 L 7.99609 9 L 7.99609 11.75 C 7.99609 12.1657, 8.34222 12.5, 8.77344 12.5 C 9.00585 12.5, 9.21308 12.4028, 9.35547 12.248 L 13.7871 8.02344 C 13.9187 7.88906, 14 7.70916, 14 7.50977 C 14 7.31037, 13.9187 7.13047, 13.7871 6.99609 L 9.35547 2.75195 C 9.21308 2.59724, 9.00585 2.5, 8.77344 2.5 Z'
          class="foreground">
  </path>
</svg>
